X:5644
T:Rose Fragrante,La. CJF.013
T:La Rose Fragrante. CJF.013
O:england
M:2/4
L:1/16
Q:100
C:
S: C.J.Fox MS, 1829/33, Beverley,E.Yorks.
R:Misc.
A:East Yorkshire
B:Kidson Coll.Mitchell Lib.M1805
K:D
"$"A2|dFAd fAdf|a4d'4|cAce gceg|\
a4e'4|dAdf adfa|d'4f'2d'a|
e'ee'e e'ed'e|d'2d'2d'2|h|A2|d4e2f2|\
fegf e2b2|b4a2g2|gfag d2A2|d4e2f2|fegf e2g2|
b4a2g2|a^(gba a=gBc)|d4e2f2|fegf e2g2|\
b4a2g2|gfaf d2A2|d4e2f2|(fecb agfe)|
(dfba ag" D.C. $"Bc)|(e4d2)||
